X: 1
T: Eddie Moloney's Favorite
R: reel
M: 4/4
L: 1/8
K: Edor
B2GB EBGB|A2FA DAFA|B2GB EBGA|(3Bcd ef gfed|
B2GB dBGB|A2FA dAFA|BAGF EFGA|(3Bcd ed Bdef||
~g3f gfed|~B3A (3Bcd ef|g2ef gefd|(3Bcd AF GE~E2|
~g3a gfed|B2AB GBFB|~E3F GFGA|(3Bcd ef gfed||
"variations"
B2GB EBGB|BAFA DAFA|B2GB EFGA|(3Bcd ed Bded|
B2BG EGBd|A2FA DAFA|B2GF GFGA|Bded (3Bcd ef||
~g3f gfed|A~B2A Bdef|~g3f gfed|(3Bcd Ad BE~E2|
gbef gefd|BdAB GBAG|EB,EF ~G3A|(3Bcd ed Bded||


Tune 323	Setting 24925

